build/img/icon-atom.svg

<svg width="23" height="24" viewBox="0 0 23 24" fill="none" xmlns="http://www.w3.org/2000/svg">
<g clip-path="url(#clip0)">
<path d="M11.8001 6.46205e-06C11.0524 6.46205e-06 10.3481 0.303892 9.73856 0.78572C9.46214 0.654263 9.15559 0.571435 8.82851 0.571435C7.68673 0.571435 6.74839 1.47363 6.74839 2.57143C6.74839 3.18438 7.04344 3.73915 7.50058 4.10715C7.44044 4.2568 7.38068 4.40658 7.32414 4.56252C6.52185 4.41752 5.76229 4.33497 5.0583 4.33034C3.24141 4.31834 1.71099 4.80086 0.990935 6C0.54766 6.7382 0.502527 7.62495 0.749493 8.51786C0.996459 9.41077 1.5177 10.3375 2.25386 11.2768C2.44273 11.5178 2.6497 11.7581 2.86675 12C2.64966 12.2422 2.44277 12.4822 2.25386 12.7232C1.5177 13.6625 0.996459 14.5803 0.749493 15.4732C0.514399 16.3232 0.549455 17.1761 0.935218 17.8929C0.85311 18.1069 0.80521 18.3313 0.80521 18.5714C0.80521 19.6692 1.74355 20.5714 2.88532 20.5714C3.61401 20.5714 4.2592 20.2031 4.63113 19.6518C5.45286 19.6856 6.35765 19.6111 7.32414 19.4375C7.43396 19.7401 7.55388 20.025 7.67701 20.3036C8.15539 21.3858 8.73243 22.2768 9.41354 22.9286C10.0946 23.5803 10.9137 24 11.8001 24C12.6865 24 13.5055 23.5803 14.1867 22.9286C14.8678 22.2768 15.4448 21.3858 15.9232 20.3036C16.0463 20.025 16.1662 19.7401 16.2761 19.4375C16.5935 19.4951 16.9014 19.5445 17.2047 19.5804C17.4107 20.4751 18.24 21.1518 19.2291 21.1518C20.3709 21.1518 21.3092 20.2496 21.3092 19.1518C21.3092 19.1486 21.3092 19.1461 21.3092 19.1429C21.8527 18.8767 22.311 18.4968 22.6093 18.0001C23.0525 17.2619 23.0977 16.3662 22.8507 15.4733C22.6037 14.5804 22.0825 13.6626 21.3463 12.7233C21.1574 12.4823 20.9505 12.2423 20.7334 12.0001C20.9505 11.7582 21.1575 11.5178 21.3463 11.2769C22.0825 10.3376 22.6037 9.41083 22.8507 8.51791C23.0977 7.625 23.0525 6.73826 22.6093 6.00006C21.8892 4.80091 20.3588 4.31851 18.5419 4.3304C17.8379 4.33497 17.0783 4.41757 16.2761 4.56257C16.1662 4.25975 16.0463 3.96611 15.9232 3.68754C15.4448 2.60531 14.8678 1.71429 14.1867 1.06258C13.5055 0.410776 12.6865 6.46205e-06 11.8001 6.46205e-06ZM11.8001 1.14286C12.3087 1.14286 12.8233 1.37012 13.3509 1.87501C13.8785 2.37989 14.3916 3.15692 14.8274 4.14286C14.9212 4.35506 15.0105 4.58192 15.0967 4.81252C14.0401 5.07726 12.9341 5.45395 11.8001 5.92858C10.6661 5.45395 9.56005 5.07726 8.50349 4.81252C8.53566 4.72649 8.57239 4.64601 8.60564 4.56252C8.67824 4.56995 8.75396 4.57138 8.82851 4.57138C9.97028 4.57138 10.9086 3.66918 10.9086 2.57138C10.9086 2.20658 10.8103 1.86707 10.63 1.57138C11.0263 1.28464 11.4145 1.14281 11.8001 1.14281V1.14286ZM8.82851 1.71429C9.32789 1.71429 9.71998 2.09129 9.71998 2.57143C9.71998 3.05158 9.32789 3.42858 8.82851 3.42858C8.32912 3.42858 7.93703 3.05158 7.93703 2.57143C7.93703 2.09129 8.32912 1.71429 8.82851 1.71429ZM5.0583 5.4732C5.64107 5.47691 6.28853 5.53969 6.98055 5.66072C6.69238 6.67212 6.46939 7.78306 6.33051 8.96429C5.33739 9.67063 4.45044 10.4063 3.68394 11.1518C3.51872 10.9642 3.35514 10.774 3.21034 10.5893C2.53963 9.73352 2.09229 8.91491 1.90098 8.2232C1.70968 7.53151 1.7582 6.9948 2.01242 6.57143C2.42579 5.88303 3.46353 5.46274 5.0583 5.4732ZM18.5419 5.4732C20.1367 5.46291 21.1744 5.88303 21.5878 6.57143C21.842 6.9948 21.8905 7.53151 21.6992 8.2232C21.5079 8.91491 21.0606 9.73352 20.3899 10.5893C20.2451 10.774 20.0815 10.9642 19.9163 11.1518C19.1482 10.4048 18.2559 9.67194 17.2604 8.96429C17.1214 7.78429 16.9074 6.67129 16.6196 5.66072C17.3117 5.53969 17.9591 5.47703 18.5419 5.4732ZM8.15061 5.91966C8.84878 6.09375 9.58076 6.31346 10.3329 6.58929C9.881 6.81012 9.43021 7.04311 8.97709 7.29463C8.52044 7.54814 8.08646 7.82103 7.65844 8.08929C7.78585 7.31837 7.9568 6.59324 8.15061 5.91966ZM15.4589 5.91966C15.6516 6.58972 15.8147 7.31411 15.9418 8.08034C15.5151 7.81306 15.0782 7.54729 14.6231 7.29463C14.17 7.04311 13.7192 6.81012 13.2673 6.58929C14.0225 6.31232 14.7581 6.09404 15.4589 5.91966ZM11.8001 7.18749C12.536 7.51149 13.284 7.87229 14.0288 8.28572C14.7742 8.69952 15.4765 9.13837 16.1368 9.58929C16.2127 10.3669 16.2575 11.1694 16.2575 12C16.2575 12.8273 16.2121 13.6358 16.1368 14.4107C15.4763 14.8609 14.7745 15.2914 14.0288 15.7054C13.2813 16.1203 12.5296 16.4881 11.7908 16.8125C11.0577 16.4884 10.3138 16.1175 9.5714 15.7054C8.82572 15.2914 8.12386 14.8609 7.46343 14.4107C7.38808 13.6358 7.34271 12.8273 7.34271 12C7.34271 11.1733 7.38824 10.3727 7.46343 9.59823C8.12498 9.14618 8.82425 8.70046 9.5714 8.28572C10.3162 7.87229 11.0642 7.51149 11.8001 7.18749ZM11.8001 10C10.6583 10 9.71998 10.9022 9.71998 12C9.71998 13.0978 10.6583 14 11.8001 14C12.9419 14 13.8802 13.0978 13.8802 12C13.8802 10.9022 12.9419 10 11.8001 10ZM6.20051 10.5179C6.1735 11.0061 6.15407 11.4954 6.15407 12C6.15407 12.5018 6.17369 12.9968 6.20051 13.4821C5.57415 12.9936 4.99881 12.4952 4.49184 12C4.99932 11.5033 5.57342 11.0081 6.20051 10.5179ZM17.3997 10.5179C18.0268 11.0081 18.6009 11.5033 19.1084 12C18.6014 12.4952 18.026 12.9936 17.3997 13.4821C17.4265 12.9968 17.4461 12.5018 17.4461 12C17.4461 11.4951 17.4268 11.0065 17.3997 10.5179ZM3.68394 12.8571C4.45108 13.6017 5.34577 14.3305 6.3398 15.0357C6.47831 16.2114 6.68468 17.323 6.97126 18.3304C6.24204 18.4581 5.57106 18.5191 4.96544 18.5179C4.93427 17.4455 4.00768 16.5714 2.88532 16.5714C2.49506 16.5714 2.13079 16.6835 1.81741 16.8661C1.76595 16.5501 1.78569 16.1847 1.90098 15.7679C2.09229 15.0762 2.53963 14.2665 3.21034 13.4107C3.35495 13.2262 3.51897 13.0447 3.68394 12.8571ZM19.9163 12.8571C20.0812 13.0447 20.2452 13.2262 20.3899 13.4107C21.0606 14.2665 21.5079 15.0762 21.6992 15.7679C21.8905 16.4595 21.842 17.0052 21.5878 17.4286C21.4438 17.6683 21.2355 17.872 20.947 18.0357C20.5709 17.509 19.9382 17.1518 19.2291 17.1518C18.3475 17.1518 17.589 17.696 17.2883 18.4464C17.0697 18.4193 16.8489 18.3794 16.6196 18.3393C16.9077 17.3291 17.1214 16.2154 17.2604 15.0357C18.2544 14.3305 19.1491 13.6017 19.9163 12.8571ZM7.65844 15.9197C8.08513 16.1866 8.52197 16.4438 8.97709 16.6964C9.43013 16.9479 9.88098 17.19 10.3329 17.4107C9.57807 17.6869 8.84149 17.9062 8.14133 18.0803C7.94844 17.4096 7.78547 16.6867 7.65844 15.9197ZM15.9418 15.9197C15.8142 16.6899 15.6528 17.4162 15.4589 18.0893C14.7581 17.9145 14.0224 17.6886 13.2673 17.4107C13.7195 17.1894 14.1693 16.9483 14.6231 16.6964C15.0782 16.4438 15.5151 16.1866 15.9418 15.9197ZM2.88532 17.7143C3.38471 17.7143 3.7768 18.0913 3.7768 18.5714C3.7768 19.0516 3.38471 19.4286 2.88532 19.4286C2.38594 19.4286 1.99385 19.0516 1.99385 18.5714C1.99385 18.0913 2.38594 17.7143 2.88532 17.7143ZM11.8094 18.0714C12.9416 18.5445 14.0516 18.9142 15.106 19.1786C15.0185 19.4132 14.9227 19.6415 14.8274 19.8571C14.3916 20.8431 13.8785 21.6201 13.3509 22.125C12.8233 22.6299 12.3087 22.8571 11.8001 22.8571C11.2915 22.8571 10.7769 22.6299 10.2493 22.125C9.72165 21.6201 9.2086 20.8431 8.77279 19.8571C8.679 19.6449 8.58972 19.4181 8.50349 19.1875C9.56159 18.9223 10.6733 18.5485 11.8094 18.0714ZM19.2291 18.2946C19.7285 18.2946 20.1206 18.6716 20.1206 19.1518C20.1206 19.632 19.7285 20.0089 19.2291 20.0089C18.7297 20.0089 18.3376 19.632 18.3376 19.1518C18.3376 18.6716 18.7297 18.2946 19.2291 18.2946Z" fill="white"/>
</g>
<defs>
<clipPath id="clip0">
<rect x="0.600098" width="22.4" height="24" fill="white"/>
</clipPath>
</defs>
</svg>

<svg width="23" height="24" fill="none" xmlns="http://www.w3.org/2000/svg"><g clip-path="url(#clip0)"><path d="M11.8 0c-.748 0-1.452.304-2.061.786a2.113 2.113 0 00-.91-.215c-1.142 0-2.08.903-2.08 2 0 .613.294 1.168.752 1.536-.06.15-.12.3-.177.456a13.348 13.348 0 00-2.266-.233C3.241 4.318 1.711 4.8.991 6 .548 6.738.503 7.625.749 8.518c.247.893.769 1.82 1.505 2.759.189.24.396.481.613.723-.217.242-.424.482-.613.723-.736.94-1.258 1.857-1.505 2.75-.235.85-.2 1.703.186 2.42-.082.214-.13.438-.13.678 0 1.098.939 2 2.08 2 .729 0 1.374-.368 1.746-.92.822.035 1.727-.04 2.693-.213.11.302.23.587.353.866.478 1.082 1.055 1.973 1.737 2.625.68.651 1.5 1.071 2.386 1.071.886 0 1.705-.42 2.387-1.071.68-.652 1.258-1.543 1.736-2.625.123-.279.243-.564.353-.866.317.057.625.107.929.142.206.895 1.035 1.572 2.024 1.572 1.142 0 2.08-.902 2.08-2v-.01c.544-.265 1.002-.645 1.3-1.142.443-.738.489-1.634.242-2.527-.247-.893-.768-1.81-1.505-2.75a14.446 14.446 0 00-.613-.723c.218-.242.424-.482.613-.723.736-.94 1.258-1.866 1.505-2.76.247-.892.201-1.779-.242-2.517-.72-1.2-2.25-1.681-4.067-1.67a13.34 13.34 0 00-2.266.233c-.11-.303-.23-.597-.353-.875-.478-1.083-1.055-1.974-1.736-2.625C13.506.41 12.687 0 11.8 0zm0 1.143c.509 0 1.023.227 1.55.732.529.505 1.042 1.282 1.477 2.268.094.212.184.439.27.67A23.219 23.219 0 0011.8 5.929a23.22 23.22 0 00-3.297-1.116c.033-.087.07-.167.103-.25.072.007.148.008.223.008 1.141 0 2.08-.902 2.08-2a1.91 1.91 0 00-.279-1c.396-.286.784-.428 1.17-.428zm-2.971.571c.499 0 .891.377.891.857s-.392.858-.891.858c-.5 0-.892-.377-.892-.858 0-.48.392-.857.892-.857zm-3.77 3.76c.582.003 1.23.066 1.922.187a21.092 21.092 0 00-.65 3.303 22.521 22.521 0 00-2.647 2.188 13.105 13.105 0 01-.474-.563c-.67-.855-1.118-1.674-1.309-2.366-.191-.691-.143-1.228.111-1.652.414-.688 1.452-1.108 3.046-1.098zm13.483 0c1.595-.011 2.632.409 3.046 1.097.254.424.302.96.111 1.652s-.638 1.51-1.31 2.366a13.12 13.12 0 01-.473.563 22.566 22.566 0 00-2.656-2.188 21.18 21.18 0 00-.64-3.303c.692-.121 1.34-.184 1.922-.188zM8.15 5.92c.698.174 1.43.393 2.182.67-.452.22-.903.453-1.356.705-.457.253-.89.526-1.319.794.128-.77.299-1.496.493-2.17zm7.308 0c.193.67.356 1.394.483 2.16a28.99 28.99 0 00-1.319-.785 29.194 29.194 0 00-1.356-.706 21.496 21.496 0 012.192-.67zM11.8 7.187c.736.324 1.484.685 2.229 1.099.745.414 1.447.852 2.108 1.303.076.778.12 1.58.12 2.411 0 .827-.045 1.636-.12 2.41a27.05 27.05 0 01-4.346 2.402 27.496 27.496 0 01-2.22-1.107 27.04 27.04 0 01-2.108-1.294A24.946 24.946 0 017.343 12c0-.827.045-1.627.12-2.402a26.73 26.73 0 012.108-1.312 26.983 26.983 0 012.23-1.099zm0 2.813c-1.142 0-2.08.902-2.08 2 0 1.098.938 2 2.08 2 1.142 0 2.08-.902 2.08-2 0-1.098-.938-2-2.08-2zm-5.6.518c-.027.488-.046.977-.046 1.482 0 .502.02.997.047 1.482A20.474 20.474 0 014.49 12a20.476 20.476 0 011.71-1.482zm11.2 0c.627.49 1.2.985 1.708 1.482a20.49 20.49 0 01-1.708 1.482c.027-.485.046-.98.046-1.482 0-.505-.02-.993-.046-1.482zm-13.716 2.34a22.567 22.567 0 002.656 2.178c.138 1.175.345 2.287.631 3.294-.729.128-1.4.19-2.006.188-.03-1.073-.957-1.947-2.08-1.947-.39 0-.754.112-1.068.295-.051-.316-.031-.681.084-1.098.191-.692.639-1.502 1.31-2.357.144-.185.308-.366.473-.554zm16.232 0c.165.187.33.368.474.553.67.856 1.118 1.665 1.31 2.357.19.691.142 1.237-.112 1.66-.144.24-.353.444-.641.608a2.12 2.12 0 00-1.718-.884c-.881 0-1.64.544-1.94 1.294-.22-.027-.44-.067-.67-.107.289-1.01.502-2.124.641-3.303a22.575 22.575 0 002.656-2.179zM7.658 15.92c.427.267.864.524 1.32.776.452.252.903.494 1.355.715a21.75 21.75 0 01-2.192.67 19.16 19.16 0 01-.483-2.161zm8.284 0c-.128.77-.29 1.496-.483 2.17-.7-.175-1.437-.401-2.192-.68.453-.22.902-.462 1.356-.714.455-.252.892-.51 1.319-.776zM2.885 17.714c.5 0 .892.377.892.857s-.392.858-.892.858-.891-.377-.891-.858c0-.48.392-.857.891-.857zm8.924.357c1.133.473 2.243.843 3.297 1.108-.088.234-.183.463-.279.678-.435.986-.948 1.763-1.476 2.268-.528.505-1.042.732-1.55.732-.51 0-1.024-.227-1.552-.732-.527-.505-1.04-1.282-1.476-2.268a12.51 12.51 0 01-.27-.67 23.094 23.094 0 003.306-1.116zm7.42.224c.5 0 .892.377.892.857s-.392.857-.892.857-.891-.377-.891-.857.392-.857.891-.857z" fill="#fff"/></g><defs><clipPath id="clip0"><path fill="#fff" d="M.6 0H23v24H.6z"/></clipPath></defs></svg>
